X: 835
T: The Kilkenny hornpipe
C: anon.
O: Ireland
B: Francis O'Neill: "The Dance Music of Ireland" (1907) no. 835
R: Hornpipe
Z: Transcribed by Frank Nordberg - http://www.musicaviva.com
F: http://www.musicaviva.com/abc/tunes/ireland/oneill-1001/oneill-1001-083
5.abc
M: C|
L: 1/8
K: G
(d>c)|B2(A>B) (G>A)(G>E)|D2G2 G2(B>c)|(dB)(ge) (dB)(GB)|(dc)(Bc) A2(d>c)|
B2(A>B) (G>A)(G>E)|D2G2 G2(B>c)|d2(g>e) (d>c)(B>A)|G4-G2:|
|:de|(=f>e)(f>g) f2(d>e)|(=f>e)(f>g) f2(A>B)|(c>B)(c>d) c2(A>B)|(c>B)
(c>d) (3(cde) (d>c)|B2(A>B) (G>A)(G>E)|D2G2 G2(B>c)|d2(g>e) (d>c)(B>A)|G4
-G2:|
W:
W:
W: From Musica Viva - http://www.musicaviva.com
W: the Internet center for free sheet music downloads.


